X:234
T:Paddy Fahy's 3
R:Reel
C:Paddy Fahy
B:Music from Ireland vol.3 n34
S:Ricker ABC as #13
Z:Transcription:??, slight arr., chords:Mike Long
M:C|
L:1/8
K:C
A|:\
"Gm"_B2dB "F"~c2dc|"G"BG~G2 DEFD|"G"GABG "F"c2dc|"D"BGA^F "G"DGGA|\
"G"(3(Bcd) Bd "F"~c2cd|"G"BG~G2 DEFD|
"G"GABG "F"c2dc|[1 "D"BGA^F "G"G3A :|[2 "D"BGA^F "G"G2 (3(ABc)\
|:"G"dgg^f dgBg|"G"dgag "(D)"^fdcB|"F"cef2 cfAf|
cfag fdcA|"G"dg~g2 dgBg|"G"dgag "D"^fdef|"G"g2ag "D"^fage|\
[1 "D"^fdcA "G"G2Bc:|[2 "D"^fdcA "G"G3A|]
